X: 1
T: Linnen Hall
O: 1782
R: jig
B: Aird (Selections of Scotch, English, Irish and Foreign Airs) 1782 v.2 #127 p.46
B: Raven (English Country Dance Tunes) 1984 p.31
B: Williamson (English, Welsh, Scottish and Irish Fiddle Tunes) 1976 p.22
M: 6/8
L: 1/8
K: G
|: "G"G2G "C"A2A | "G"B2c dBG | "Am"E2E c2B  | "D7"ABG FED \
|  "G"G2G "C"A2A | "G"B2c dBG | "Am"EcB "D7"AGF  | "G"G3 "fine"G3 :|
|: "G"d2d "C"e2e | "G"d2g dBG | "G"d2d "C"e2e  | "G"dBG "D7"A3  \
|  "G"d2d "C"e2e | "G"d2g g2f | "Em"egf "A7"ed^c | "D"d3 "D7"[d3D3] :|
